X: 1
T: DONEGALL BOYS' -- REEL
B: Ryan's Mammoth Collection of Fiddle Tunes
R: reel
M: C|
L: 1/8
Z: Contributed 20000418155834 by John Chambers jchambers:casc.com
K: Em
"Segno"|]\
vdcBA GFEF | G2 (BG) (dG) (Be) | dcBA GFED | B"4"ee^d "0"efge |
 dcBA GFEF | G2 (BG) (dG) (Be) | dcBA GFED | B"4"ee^d "0"e2(ef) |]
|:\
 g2(gf) (gb)ag | fdad bdad | g2(gf) gbag | fgaf g2d2 |
 g2(gf) gbag | fdad bdad | gfef gfed | Beed efge "Segno"[|]:|
